X:1
T:Angels We Have Heard on High (G)
M:4/4
L:1/4
Z:Kevin Goess 9/8/2004
C:French trad.
Q:140
N:More French lyrics here
K:G
"G" B B "(Em)" B d | "D" d>c "G" B2 | B A B d | "D" B>A "G" G2 |
w:An-gels we have heard on high, Sweet-ly sing-ing o'er the plains.
"G" B B "(Em)" B d | "D" d>c "G" B2 | B A B d | "D" B>A "G" G2 |
w:And the moun-tains in re-ply, Ech-o-ing their joy-ous strains.
"G" d2 e/d/c/B/ | "Am" c2 d/c/B/A/ | "G" B2 c/B/A/G/ | "D" A>D D2 |
w:Glo - |  - - |  - - |  - ri-a
"G" G "D" A "G" B "C" c | "G" B2 "D" A2 | "G" d2 e/d/c/B/ | "Am" c2 d/c/B/A/ | 
w:in ex-cel-sis De-o | - - |  - - |
"G" B2 c/B/A/G/ | "D" A>D D2 | "G" G "D" A "G" B "C" c | "G" B2 "D" A2 | "G" G4 |]
w: - - | - ri-a in ex-cel-sis De - o.
W:
W:Shephers why this jubille?
W:Why your joyous strains prolong?
W:What the gladsome tidings be,
W:Which inspire your heavnly song?
W:
W:Come, to Bethlehem, and see
W:Him whose birth the angels sing;
W:Come, adore on bended knee,
W:Christ the Lord, the new born King.
W:
W:See him in a manger laid, 
W:Whom the choirs of angels praise;
W:Mary, Joseph lend your aid,
W:While our hearts in love we raise.
W:
W:
W:Les anges dans nos campagnes
W:Ont entonné l'hymne des cieux;
W:Et l'écho de nos montagnes
W:Redit ce chant mèlodieux.
W:
W:Bergers, pour qui cette f�te?
W:Quel est l'objet de tous ces chant?
W:Quel vainqueur, quelle conqu�te
W:M�rite ces cris triomphants?
W:
W:Ils annoncent la naissance
W:Du Lib�rateur d'Isra�l,
W:Et pleins de reconnaissance
W:Chantent en ce jour solennel.

